docs/images/icons/vse_svoi.svg

<svg width="128" height="31" viewBox="0 0 128 31" fill="none" xmlns="http://www.w3.org/2000/svg">
<g id="vse svoi 1" clip-path="url(#clip0_245_2642)">
<path id="Vector" d="M8.88471 8.09033C8.65882 8.09033 8.50824 8.24155 8.50824 8.46838V15.3489V15.8025V22.2294C8.50824 22.4562 8.65882 22.6074 8.88471 22.6074H11.1435C11.3694 22.6074 11.52 22.4562 11.52 22.2294V15.8025V15.3489V8.46838C11.52 8.24155 11.3694 8.09033 11.1435 8.09033H8.88471Z" fill="#DB1915"/>
<path id="Vector_2" d="M19.6518 13.5338C19.6518 13.7606 19.5012 13.9119 19.2753 13.9119H14.2306C14.08 13.9119 13.9294 14.0631 13.9294 14.2143V15.4241V16.6338C13.9294 16.785 14.08 16.9363 14.2306 16.9363H19.2753C19.5012 16.9363 19.6518 17.0875 19.6518 17.3143V18.3728C19.6518 18.4485 19.5765 18.5997 19.5765 18.5997L18.5976 19.507C18.5224 19.5826 18.4471 19.5826 18.3718 19.5826H13.3271C13.1765 19.5826 13.0259 19.7338 13.0259 19.885V21.1704V22.4558C13.0259 22.607 13.1765 22.7582 13.3271 22.7582H19.3506C19.4259 22.7582 19.5012 22.7582 19.5765 22.6826L22.5129 19.9606C22.5882 19.885 22.5882 19.8094 22.5882 19.7338V16.8607C22.5882 16.785 22.5882 16.7094 22.5129 16.6338L21.6094 15.7265V15.6509V15.5753L22.5129 14.668C22.5882 14.5924 22.5882 14.5167 22.5882 14.4411V11.1899C22.5882 11.1143 22.5882 11.0387 22.5129 10.9631L19.5765 8.24114C19.5012 8.16553 19.4259 8.16553 19.3506 8.16553H13.3271C13.1765 8.16553 13.0259 8.31675 13.0259 8.46797V9.75333V11.0387C13.0259 11.1899 13.1765 11.3411 13.3271 11.3411H18.3718C18.4471 11.3411 18.5224 11.3411 18.5976 11.4167L19.5765 12.3241C19.6518 12.3997 19.6518 12.4753 19.6518 12.5509V13.5338Z" fill="#DB1915"/>
<path id="Vector_3" d="M27.8588 15.3488C27.8588 22.3049 22.2118 27.9756 15.2847 27.9756C8.35765 27.9756 2.7106 22.3049 2.7106 15.3488C2.7106 8.39268 8.35765 2.72196 15.2847 2.72196C22.2118 2.72196 27.8588 8.39268 27.8588 15.3488ZM15.2847 0C6.85176 0 0 6.88049 0 15.3488C0 23.8171 6.85176 30.6976 15.2847 30.6976C23.7176 30.6976 30.5694 23.8171 30.5694 15.3488C30.5694 6.88049 23.7176 0 15.2847 0Z" fill="#DB1915"/>
<path id="Vector_4" d="M41.9388 11.643C41.9388 11.5673 42.0141 11.4917 42.0894 11.4917H47.36C47.7365 11.4917 48.0376 11.5673 48.2635 11.7942C48.4894 11.9454 48.5647 12.2478 48.5647 12.6259C48.5647 13.382 48.1882 13.6844 47.36 13.6844H42.0894C42.0141 13.6844 41.9388 13.6088 41.9388 13.5332V11.643ZM46.9835 9.75271H42.0141C41.9388 9.75271 41.8635 9.6771 41.8635 9.6015V8.01369C41.8635 7.93808 41.9388 7.86247 42.0141 7.86247H46.9835C48.0376 7.86247 48.1882 8.39174 48.1882 8.92101C48.1882 9.22345 48.0376 9.75271 46.9835 9.75271ZM49.5435 10.5844C49.4682 10.5088 49.4682 10.4332 49.5435 10.3576C49.8447 10.0552 50.0706 9.6015 50.0706 8.8454C50.0706 7.93808 49.7694 7.25761 49.1671 6.72834C48.64 6.27468 47.8871 6.04785 47.0588 6.04785H40.2823C40.2071 6.04785 40.1318 6.12346 40.1318 6.19907V15.121C40.1318 15.1966 40.2071 15.2722 40.2823 15.2722H47.36C49.3176 15.2722 50.3718 14.2893 50.3718 12.4747C50.3718 11.9454 50.2212 11.4917 49.9953 11.1137C49.8447 10.9625 49.6941 10.7356 49.5435 10.5844Z" fill="#DB1915"/>
<path id="Vector_5" d="M60.16 12.2487C60.16 13.0048 60.0094 13.4584 59.7082 13.534C59.5577 13.6097 58.9553 13.7609 56.8471 13.7609C55.6424 13.7609 54.8894 13.6853 54.5129 13.6097C53.9859 13.4584 53.6847 13.156 53.5341 12.5511C53.4588 12.2487 53.4588 11.6438 53.4588 10.7365C53.4588 9.60234 53.5341 8.84624 53.6847 8.46819C53.8353 8.09014 54.0612 7.86331 54.5129 7.7877C54.8141 7.7121 55.6424 7.63649 56.8471 7.63649C58.9553 7.63649 59.5577 7.78771 59.7082 7.86331C60.0094 8.01453 60.16 8.46819 60.16 9.14868C60.16 9.22429 60.2353 9.2999 60.3106 9.2999H61.8165C61.8918 9.2999 61.9671 9.22429 61.9671 9.14868C61.9671 8.24136 61.8165 7.56088 61.44 7.03161C61.0635 6.42673 60.3859 6.04868 59.4071 5.97307C59.1059 5.89746 58.2024 5.89746 56.8471 5.89746C55.3412 5.89746 54.3624 5.97306 53.76 6.12428C52.8565 6.35111 52.2541 7.0316 51.9529 8.01453C51.8024 8.5438 51.7271 9.45112 51.7271 10.5853C51.7271 11.795 51.8024 12.6267 51.9529 13.156C52.2541 14.1389 52.8565 14.8194 53.76 15.0462C54.3624 15.1975 55.4165 15.2731 56.8471 15.2731C58.2024 15.2731 59.1059 15.2731 59.4071 15.1975C60.3859 15.1219 61.0635 14.7438 61.44 14.1389C61.7412 13.6853 61.9671 12.9292 61.9671 12.0219C61.9671 11.9462 61.8918 11.8706 61.8165 11.8706H60.3106C60.3106 12.0219 60.16 12.1731 60.16 12.2487Z" fill="#DB1915"/>
<path id="Vector_6" d="M88.9223 12.2487C88.9223 13.0048 88.7718 13.4584 88.4706 13.534C88.32 13.6097 87.7176 13.7609 85.6094 13.7609C84.4047 13.7609 83.6518 13.6853 83.2753 13.6097C82.7482 13.4584 82.4471 13.156 82.2965 12.5511C82.2212 12.2487 82.2212 11.6438 82.2212 10.7365C82.2212 9.60234 82.2965 8.84624 82.4471 8.46819C82.5976 8.09014 82.8235 7.86331 83.2753 7.7877C83.5765 7.7121 84.4047 7.63649 85.6094 7.63649C87.7176 7.63649 88.32 7.78771 88.4706 7.86331C88.7718 8.01453 88.9223 8.46819 88.9223 9.14868C88.9223 9.22429 88.9976 9.2999 89.0729 9.2999H90.5788C90.6541 9.2999 90.7294 9.22429 90.7294 9.14868C90.7294 8.24136 90.5788 7.56088 90.2024 7.03161C89.8259 6.42673 89.1482 6.04868 88.1694 5.97307C87.8682 5.89746 86.9647 5.89746 85.6094 5.89746C84.1035 5.89746 83.1247 5.97306 82.5223 6.12428C81.6188 6.35111 81.0165 7.0316 80.7153 8.01453C80.5647 8.5438 80.4894 9.45112 80.4894 10.5853C80.4894 11.795 80.5647 12.6267 80.7153 13.156C81.0165 14.1389 81.6188 14.8194 82.5223 15.0462C83.1247 15.1975 84.1788 15.2731 85.6094 15.2731C86.9647 15.2731 87.8682 15.2731 88.1694 15.1975C89.1482 15.1219 89.8259 14.7438 90.2024 14.1389C90.5035 13.6853 90.7294 12.9292 90.7294 12.0219C90.7294 11.9462 90.6541 11.8706 90.5788 11.8706H89.0729C88.9976 12.0219 88.9223 12.1731 88.9223 12.2487Z" fill="#DB1915"/>
<path id="Vector_7" d="M63.7741 15.3478H72.2824C72.3576 15.3478 72.4329 15.2722 72.4329 15.1966V13.76C72.4329 13.6844 72.3576 13.6088 72.2824 13.6088H65.5812C65.5059 13.6088 65.4306 13.5332 65.4306 13.4576V11.643C65.4306 11.5673 65.5059 11.4917 65.5812 11.4917H72.0565C72.1318 11.4917 72.2071 11.4161 72.2071 11.3405V9.90393C72.2071 9.82832 72.1318 9.75271 72.0565 9.75271H65.5812C65.5059 9.75271 65.4306 9.6771 65.4306 9.6015V7.93808C65.4306 7.86247 65.5059 7.78686 65.5812 7.78686H72.2824C72.3576 7.78686 72.4329 7.71125 72.4329 7.63564V6.19907C72.4329 6.12346 72.3576 6.04785 72.2824 6.04785H63.7741C63.6988 6.04785 63.6235 6.12346 63.6235 6.19907V15.121C63.6235 15.2722 63.6988 15.3478 63.7741 15.3478Z" fill="#DB1915"/>
<path id="Vector_8" d="M94.2682 11.643C94.2682 11.5673 94.3435 11.4917 94.4188 11.4917H99.6894C100.066 11.4917 100.367 11.5673 100.593 11.7942C100.819 11.9454 100.894 12.2478 100.894 12.6259C100.894 13.382 100.518 13.6844 99.6894 13.6844H94.4188C94.3435 13.6844 94.2682 13.6088 94.2682 13.5332V11.643ZM99.3882 9.75271H94.4188C94.3435 9.75271 94.2682 9.6771 94.2682 9.6015V8.01369C94.2682 7.93808 94.3435 7.86247 94.4188 7.86247H99.3882C100.442 7.86247 100.593 8.39174 100.593 8.92101C100.593 9.22345 100.442 9.75271 99.3882 9.75271ZM101.873 10.5844C101.798 10.5088 101.798 10.4332 101.873 10.3576C102.174 10.0552 102.4 9.6015 102.4 8.8454C102.4 7.93808 102.099 7.25761 101.496 6.72834C100.969 6.27468 100.292 6.04785 99.3882 6.04785H92.6118C92.5365 6.04785 92.4612 6.12346 92.4612 6.19907V15.121C92.4612 15.1966 92.5365 15.2722 92.6118 15.2722H99.6894C101.647 15.2722 102.701 14.2893 102.701 12.4747C102.701 11.9454 102.551 11.4917 102.325 11.1137C102.249 10.9625 102.099 10.7356 101.873 10.5844Z" fill="#DB1915"/>
<path id="Vector_9" d="M109.854 7.71167C112.339 7.71167 113.016 7.9385 113.242 8.08972C113.393 8.16533 113.694 8.6946 113.694 10.7361C113.694 11.719 113.619 12.3239 113.544 12.6263C113.393 13.2312 113.016 13.5336 112.414 13.6848C112.264 13.6848 111.661 13.7605 109.929 13.7605C108.574 13.7605 107.746 13.7605 107.445 13.6848C106.842 13.6092 106.466 13.2312 106.315 12.6263C106.24 12.3239 106.165 11.6434 106.165 10.7361C106.165 9.75314 106.24 9.14826 106.315 8.84582C106.466 8.24094 106.842 7.86289 107.445 7.78728C107.595 7.71167 108.424 7.71167 109.854 7.71167ZM112.791 6.12388C112.264 6.04827 111.285 5.97266 109.854 5.97266C108.424 5.97266 107.445 6.04827 106.842 6.12388C105.487 6.35071 104.659 6.95558 104.433 7.86289C104.282 8.31655 104.207 9.29948 104.207 10.7361C104.207 12.1726 104.282 13.1556 104.433 13.6092C104.734 14.5166 105.562 15.1214 106.842 15.3483C107.369 15.4239 108.348 15.4995 109.854 15.4995C111.36 15.4995 112.339 15.4239 112.791 15.3483C114.146 15.1214 114.974 14.5166 115.2 13.6092C115.351 13.1556 115.426 12.1726 115.426 10.7361C115.426 9.29948 115.351 8.31655 115.2 7.86289C114.974 6.95558 114.146 6.35071 112.791 6.12388Z" fill="#DB1915"/>
<path id="Vector_10" d="M125.365 6.12402L119.191 13.0801C119.115 13.1557 118.889 13.0801 118.889 13.0045V6.27525C118.889 6.19964 118.814 6.12402 118.739 6.12402H117.233C117.158 6.12402 117.082 6.19964 117.082 6.27525V15.1972C117.082 15.2728 117.158 15.3484 117.233 15.3484H119.341C119.416 15.3484 119.416 15.3484 119.416 15.2728L125.515 8.46792C125.591 8.39231 125.741 8.46792 125.741 8.54353V15.1972C125.741 15.2728 125.816 15.3484 125.892 15.3484H127.398C127.473 15.3484 127.548 15.2728 127.548 15.1972V6.27525C127.548 6.19964 127.473 6.12402 127.398 6.12402H125.365Z" fill="#DB1915"/>
<path id="Vector_11" d="M52.1788 26.085H51.6518V22.6826L48.2635 26.085H47.4353V22.1533H47.9624V25.6314L51.3506 22.1533H52.1788V26.085Z" fill="white"/>
<path id="Vector_12" d="M57.0729 22.6826H55.3412V26.085H54.7388V22.6826H53.0071V22.1533H57.0729V22.6826Z" fill="white"/>
<path id="Vector_13" d="M62.4188 26.085H61.8165V24.346H58.4282V26.085H57.8259V22.1533H58.4282V23.8167H61.8165V22.1533H62.4188V26.085Z" fill="white"/>
<path id="Vector_14" d="M67.0871 26.085H63.3976V22.1533H67.0871V22.6826H63.9247V23.8167H67.0118V24.346H63.9247V25.5558H67.0871V26.085Z" fill="white"/>
<path id="Vector_15" d="M72.5082 24.7241C72.5082 25.1778 72.4329 25.4802 72.2824 25.7071C72.1318 25.9339 71.8306 26.0851 71.4541 26.1607C71.3035 26.1607 70.9271 26.1607 70.3247 26.1607C69.6471 26.1607 69.1953 26.1607 68.9694 26.0851C68.5929 26.0095 68.3671 25.7071 68.2165 25.329C68.1412 25.1022 68.1412 24.7241 68.1412 24.1949C68.1412 23.6656 68.1412 23.2875 68.2165 23.0607C68.3671 22.6827 68.5929 22.3802 68.9694 22.3046C69.1953 22.229 69.6471 22.229 70.3247 22.229C70.9271 22.229 71.3035 22.229 71.4541 22.229C71.8306 22.3046 72.1318 22.4558 72.2824 22.6827C72.4329 22.9095 72.5082 23.2119 72.5082 23.6656H71.9059C71.9059 23.2119 71.8306 22.9851 71.6047 22.9095C71.4541 22.8339 71.0024 22.7583 70.2494 22.7583C69.7224 22.7583 69.3459 22.7583 69.1953 22.8339C68.9694 22.9095 68.8188 22.9851 68.7435 23.2119C68.6682 23.3631 68.6682 23.7412 68.6682 24.2705C68.6682 24.7241 68.6682 25.0266 68.7435 25.1022C68.8188 25.4046 68.9694 25.6314 69.2706 25.7071C69.4212 25.7071 69.7976 25.7827 70.3247 25.7827C71.0776 25.7827 71.5294 25.7827 71.68 25.7071C71.8306 25.6314 71.9812 25.329 71.9812 24.951H72.5082V24.7241Z" fill="white"/>
<path id="Vector_16" d="M75.2941 24.3457H73.3365V23.8164H75.2941V24.3457Z" fill="white"/>
<path id="Vector_17" d="M81.0165 26.085H80.1129L77.4776 24.2704H76.8753V26.085H76.3482V22.1533H76.8753V23.7411H77.4776L79.8871 22.1533H80.8659L78.1553 23.968L81.0165 26.085Z" fill="white"/>
<path id="Vector_18" d="M86.2871 26.085H85.6847V22.6825H82.8235V23.4386C82.8235 25.1776 82.5976 26.085 82.1459 26.085H81.5435V25.5557H81.7694C82.0706 25.5557 82.2212 24.9508 82.2212 23.8167V23.6654V23.4386V23.2874V23.2118V22.0776H86.2118V26.085H86.2871Z" fill="white"/>
<path id="Vector_19" d="M92.5365 22.1533L90.6541 25.4045C90.3529 25.8582 89.9765 26.085 89.3741 26.085H88.0941V25.5558H89.3741C89.6753 25.5558 89.9012 25.4801 90.0518 25.2533L87.1906 22.1533H88.0188L90.3529 24.7997L91.8588 22.1533H92.5365Z" fill="white"/>
<path id="Vector_20" d="M97.0541 24.9509C97.0541 24.7241 96.9788 24.6484 96.9035 24.4972C96.7529 24.4216 96.6023 24.346 96.4518 24.346H93.8918V25.5558H96.4518C96.6776 25.5558 96.8282 25.4801 96.9035 25.4045C96.9788 25.2533 97.0541 25.1021 97.0541 24.9509ZM97.5812 24.9509C97.5812 25.707 97.2047 26.085 96.3765 26.085H93.2141V22.1533H97.2047V22.6826H93.8165V23.8167H96.3765C97.2047 23.8167 97.5812 24.1948 97.5812 24.9509Z" fill="white"/>
<path id="Vector_21" d="M45.7035 24.7997C45.6282 24.9509 45.4023 25.0265 45.1012 25.0265H43.5953V24.1192V22.6826H45.1012C45.4023 22.6826 45.6282 22.7582 45.7035 22.9094C45.7788 23.0606 45.8541 23.2875 45.8541 23.5899V24.0436C45.8541 24.4216 45.7788 24.6484 45.7035 24.7997ZM41.4871 25.0265C41.1859 25.0265 40.96 24.9509 40.8847 24.7997C40.8094 24.6484 40.7341 24.4216 40.7341 24.1192V23.6655C40.7341 23.3631 40.8094 23.1362 40.8847 22.985C40.96 22.8338 41.1859 22.7582 41.4871 22.7582H42.9929V24.1948V25.1021H41.4871V25.0265ZM46.08 22.3801C45.9294 22.2289 45.5529 22.1533 45.1012 22.1533H41.4871C41.0353 22.1533 40.7341 22.2289 40.5082 22.3801C40.2823 22.607 40.1318 22.985 40.1318 23.5899V24.0436C40.1318 24.6484 40.2823 25.0265 40.5082 25.2533C40.6588 25.4045 41.0353 25.4801 41.4871 25.4801H42.9929V26.0094H43.5953V25.4801H45.1012C45.5529 25.4801 45.8541 25.4045 46.08 25.2533C46.3059 25.0265 46.4565 24.6484 46.4565 24.0436V23.5899C46.4565 22.985 46.3059 22.607 46.08 22.3801Z" fill="white"/>
</g>
<defs>
<clipPath id="clip0_245_2642">
<rect width="128" height="31" fill="white"/>
</clipPath>
</defs>
</svg>

<svg width="128" height="31" fill="none" xmlns="http://www.w3.org/2000/svg"><g clip-path="url(#a)"><path d="M8.885 8.09c-.226 0-.377.152-.377.378V22.23c0 .227.15.378.377.378h2.258c.226 0 .377-.15.377-.378V8.47c0-.227-.15-.379-.377-.379H8.886Zm10.767 5.444c0 .227-.15.378-.377.378h-5.044a.325.325 0 0 0-.302.302v2.42c0 .151.151.302.302.302h5.044c.226 0 .377.151.377.378v1.059a.763.763 0 0 1-.076.227l-.978.907c-.076.076-.15.076-.226.076h-5.045c-.15 0-.301.15-.301.302v2.571c0 .151.15.302.301.302h6.024c.075 0 .15 0 .226-.075l2.936-2.722c.075-.076.075-.152.075-.227V16.86c0-.076 0-.152-.075-.227l-.904-.908v-.151l.904-.907c.075-.076.075-.151.075-.227v-3.25c0-.076 0-.151-.075-.227l-2.937-2.722c-.075-.075-.15-.075-.225-.075h-6.024c-.15 0-.301.15-.301.302v2.571c0 .15.15.302.301.302h5.045c.075 0 .15 0 .226.076l.979.907c.075.076.075.151.075.227v.983Z" fill="#DB1915"/><path d="M27.859 15.349c0 6.956-5.647 12.627-12.574 12.627S2.71 22.305 2.71 15.349 8.358 2.722 15.285 2.722s12.574 5.67 12.574 12.627ZM15.285 0C6.852 0 0 6.88 0 15.349c0 8.468 6.852 15.349 15.285 15.349s15.284-6.88 15.284-15.35C30.57 6.88 23.718 0 15.285 0Zm26.654 11.643c0-.076.075-.151.15-.151h5.271c.377 0 .678.075.904.302.225.151.3.454.3.832 0 .756-.376 1.058-1.204 1.058h-5.27c-.076 0-.151-.075-.151-.15v-1.891Zm5.044-1.89h-4.969c-.075 0-.15-.076-.15-.152V8.014c0-.076.075-.152.15-.152h4.97c1.054 0 1.204.53 1.204 1.059 0 .302-.15.832-1.205.832Zm2.56.831c-.075-.075-.075-.15 0-.226.302-.303.528-.757.528-1.513 0-.907-.302-1.587-.904-2.117-.527-.453-1.28-.68-2.108-.68h-6.777c-.075 0-.15.075-.15.151v8.922c0 .076.075.151.15.151h7.078c1.958 0 3.012-.983 3.012-2.797 0-.53-.15-.983-.377-1.361-.15-.152-.3-.378-.451-.53Zm10.617 1.665c0 .756-.15 1.21-.452 1.285-.15.076-.753.227-2.86.227-1.206 0-1.959-.076-2.335-.151-.527-.152-.828-.454-.979-1.059-.075-.302-.075-.907-.075-1.815 0-1.134.075-1.89.226-2.268.15-.378.376-.605.828-.68.301-.076 1.13-.152 2.334-.152 2.108 0 2.71.152 2.861.227.301.152.452.605.452 1.286 0 .075.075.15.15.15h1.506c.076 0 .151-.075.151-.15 0-.908-.15-1.588-.527-2.117-.377-.605-1.054-.983-2.033-1.059-.301-.076-1.205-.076-2.56-.076-1.506 0-2.485.076-3.087.227-.904.227-1.506.908-1.807 1.89-.15.53-.226 1.437-.226 2.571 0 1.21.075 2.042.226 2.571.301.983.903 1.663 1.807 1.89.602.152 1.657.227 3.087.227 1.355 0 2.259 0 2.56-.075.979-.076 1.657-.454 2.033-1.06.301-.453.527-1.209.527-2.116 0-.076-.075-.151-.15-.151H60.31c0 .15-.151.302-.151.378Zm28.762 0c0 .756-.15 1.21-.451 1.285-.151.076-.753.227-2.862.227-1.204 0-1.957-.076-2.334-.151-.527-.152-.828-.454-.979-1.059-.075-.302-.075-.907-.075-1.815 0-1.134.075-1.89.226-2.268.15-.378.376-.605.828-.68.301-.076 1.13-.152 2.334-.152 2.109 0 2.711.152 2.862.227.3.152.451.605.451 1.286 0 .075.076.15.15.15h1.507c.075 0 .15-.075.15-.15 0-.908-.15-1.588-.527-2.117-.376-.605-1.054-.983-2.033-1.059-.3-.076-1.204-.076-2.56-.076-1.505 0-2.484.076-3.087.227-.903.227-1.506.908-1.807 1.89-.15.53-.226 1.437-.226 2.571 0 1.21.076 2.042.226 2.571.301.983.904 1.663 1.807 1.89.603.152 1.657.227 3.087.227 1.356 0 2.26 0 2.56-.075.98-.076 1.657-.454 2.033-1.06.302-.453.527-1.209.527-2.116 0-.076-.075-.151-.15-.151h-1.506c-.075.15-.15.302-.15.378Zm-25.148 3.099h8.508c.076 0 .15-.076.15-.151V13.76c0-.076-.074-.151-.15-.151h-6.7c-.076 0-.151-.076-.151-.151v-1.815c0-.076.075-.151.15-.151h6.475c.076 0 .151-.076.151-.152V9.905c0-.076-.075-.151-.15-.151H65.58c-.075 0-.15-.076-.15-.152V7.938c0-.076.075-.151.15-.151h6.701c.076 0 .15-.076.15-.151V6.199c0-.076-.074-.151-.15-.151h-8.508c-.075 0-.15.075-.15.151v8.922c0 .151.075.227.15.227Zm30.494-3.705c0-.076.076-.151.15-.151h5.271c.377 0 .678.075.904.302.226.151.301.454.301.832 0 .756-.376 1.058-1.205 1.058h-5.27a.161.161 0 0 1-.15-.15v-1.891Zm5.12-1.89h-4.97c-.075 0-.15-.076-.15-.152V8.014c0-.076.076-.152.15-.152h4.97c1.054 0 1.205.53 1.205 1.059 0 .302-.151.832-1.205.832Zm2.485.831c-.075-.075-.075-.15 0-.226.301-.303.527-.757.527-1.513 0-.907-.301-1.587-.904-2.117-.527-.453-1.204-.68-2.108-.68h-6.776c-.075 0-.15.075-.15.151v8.922c0 .076.075.151.15.151h7.077c1.958 0 3.012-.983 3.012-2.797 0-.53-.15-.983-.376-1.361a1.422 1.422 0 0 0-.452-.53Zm7.981-2.872c2.485 0 3.162.227 3.388.378.151.075.452.605.452 2.646 0 .983-.075 1.588-.15 1.89-.151.605-.528.908-1.13 1.059-.15 0-.753.075-2.485.075-1.355 0-2.183 0-2.484-.075-.603-.076-.979-.454-1.13-1.059-.075-.302-.15-.983-.15-1.89 0-.983.075-1.588.15-1.89.151-.605.527-.983 1.13-1.059.15-.075.979-.075 2.409-.075Zm2.937-1.588c-.527-.076-1.506-.151-2.937-.151-1.43 0-2.409.075-3.012.15-1.355.228-2.183.833-2.409 1.74-.151.454-.226 1.436-.226 2.873 0 1.437.075 2.42.226 2.873.301.908 1.129 1.512 2.409 1.74.527.075 1.506.15 3.012.15s2.485-.075 2.937-.15c1.355-.228 2.183-.832 2.409-1.74.151-.453.226-1.436.226-2.873 0-1.437-.075-2.42-.226-2.873-.226-.907-1.054-1.512-2.409-1.74Zm12.574 0-6.174 6.956c-.076.076-.302 0-.302-.075v-6.73c0-.075-.075-.151-.15-.151h-1.506c-.075 0-.151.076-.151.151v8.922c0 .076.076.151.151.151h2.108c.075 0 .075 0 .075-.075l6.099-6.805c.076-.076.226 0 .226.076v6.653c0 .076.075.151.151.151h1.506c.075 0 .15-.075.15-.15V6.274c0-.075-.075-.151-.15-.151h-2.033Z" fill="#DB1915"/><path d="M52.179 26.085h-.527v-3.402l-3.389 3.402h-.828v-3.932h.527v3.478l3.389-3.478h.828v3.932Zm4.894-3.402H55.34v3.402h-.602v-3.402h-1.732v-.53h4.066v.53Zm5.346 3.402h-.602v-1.739h-3.389v1.739h-.602v-3.932h.602v1.664h3.389v-1.664h.602v3.932Zm4.668 0h-3.69v-3.932h3.69v.53h-3.162v1.134h3.087v.529h-3.087v1.21h3.162v.529Zm5.421-1.361c0 .454-.075.756-.226.983-.15.227-.451.378-.828.454h-1.13c-.677 0-1.129 0-1.355-.076-.376-.076-.602-.378-.752-.756-.076-.227-.076-.605-.076-1.134 0-.53 0-.907.075-1.134.151-.378.377-.68.753-.756.226-.076.678-.076 1.356-.076h1.13c.376.076.677.227.827.454.15.227.226.529.226.983h-.602c0-.454-.075-.68-.301-.756-.15-.076-.603-.152-1.356-.152-.527 0-.903 0-1.054.076-.226.076-.376.151-.451.378-.076.151-.076.53-.076 1.058 0 .454 0 .757.075.832.076.303.226.53.528.605.15 0 .527.076 1.054.076.753 0 1.204 0 1.355-.076.15-.076.301-.378.301-.756h.527v-.227Zm2.786-.378h-1.957v-.53h1.957v.53Zm5.722 1.739h-.903l-2.635-1.815h-.603v1.815h-.527v-3.932h.527v1.588h.603l2.41-1.588h.978l-2.71 1.815 2.86 2.117Zm5.271 0h-.602v-3.402h-2.862v.756c0 1.739-.225 2.646-.677 2.646h-.603v-.53h.226c.302 0 .452-.604.452-1.738v-1.739h3.99v4.007h.076Zm6.25-3.932-1.883 3.252c-.301.453-.677.68-1.28.68h-1.28v-.53h1.28c.301 0 .527-.075.678-.302l-2.861-3.1h.828l2.334 2.647 1.506-2.647h.678Zm4.517 2.797c0-.226-.075-.302-.15-.453-.151-.075-.302-.151-.452-.151h-2.56v1.21h2.56c.226 0 .376-.076.451-.152.076-.15.151-.302.151-.453Zm.527 0c0 .757-.376 1.135-1.205 1.135h-3.162v-3.932h3.99v.53h-3.387v1.134h2.56c.828 0 1.204.378 1.204 1.134Zm-51.878-.15c-.075.15-.3.226-.602.226h-1.506v-2.343h1.506c.301 0 .527.075.602.226.076.152.151.379.151.68v.455c0 .378-.075.604-.15.756Zm-4.216.226c-.301 0-.527-.075-.602-.226a1.515 1.515 0 0 1-.15-.68v-.454c0-.303.074-.53.15-.681.075-.151.3-.227.602-.227h1.506v2.344h-1.506v-.076Zm4.593-2.646c-.15-.151-.527-.227-.979-.227h-3.614c-.452 0-.753.076-.979.227-.226.227-.376.605-.376 1.21v.454c0 .604.15.982.376 1.21.15.15.527.226.98.226h1.505v.53h.602v-.53h1.506c.452 0 .753-.076.979-.227.226-.227.377-.605.377-1.21v-.453c0-.605-.151-.983-.377-1.21Z" fill="#fff"/></g><defs><clipPath id="a"><path fill="#fff" d="M0 0h128v31H0z"/></clipPath></defs></svg>
